icon/pk/breast-pump.svg

<svg width="48" height="48" fill="none" xmlns="http://www.w3.org/2000/svg"><path d="M35 25c0-4-6-6-6-6v-5H17v5s-6 2-6 6v19h24V25Z" fill="#2F88FF" stroke="#000" stroke-width="4" stroke-linecap="round" stroke-linejoin="round"/><path d="m20 4-7 6M23 14l-6-7M26 8h9v7l6 5" stroke="#000" stroke-width="4" stroke-linecap="round" stroke-linejoin="round"/></svg>

<svg viewBox="0 0 48 48" fill="none" xmlns="http://www.w3.org/2000/svg" height="1em" width="1em">
  <path d="M35 25C35 21 29 19 29 19V14H17V19C17 19 11 21 11 25V44H35V25Z" fill="#2F88FF" stroke="black" stroke-width="4" stroke-linecap="round" stroke-linejoin="round"/>
  <path d="M20 4L13 10" stroke="black" stroke-width="4" stroke-linecap="round" stroke-linejoin="round"/>
  <path d="M23 14L17 7" stroke="black" stroke-width="4" stroke-linecap="round" stroke-linejoin="round"/>
  <path d="M26 8H35V15L41 20" stroke="black" stroke-width="4" stroke-linecap="round" stroke-linejoin="round"/>
</svg>
